X:54
T:Corner House, The
M:6/8
L:1/8
B:Thompson's Compleat Collection of 200 Favourite Country Dances, vol. 1 (London, 1757)
Z:Transcribed and edited by Fynnian Titford-Mock, 2007
Z:abc's:AK/Fiddler's Companion
K:Bb
B2B B2g|fdB c3|e3 dcB|ABc cAF|B2B B2g|fdB {ga}b3|agf cf=e|{=e}f3 F3:|
|:f2f fbf|fbf dcB|bag fed|cdB cAF|BdB GEG|cec AFA|afd ecA|{A}B3 B,3:|

